Origami/64x64/apps/xournal.svg

<svg width="64" height="64" version="1" xmlns="http://www.w3.org/2000/svg">
 <path d="m54 58.212122v-40.424243c0-1.544485-1.2265-2.787879-2.75-2.787879h-38.5c-1.5235 0-2.75 1.243394-2.75 2.787879v40.424243c0 1.544484 1.2265 2.787878 2.75 2.787878h38.5c1.5235 0 2.75-1.243394 2.75-2.787878z" style="opacity:.2"/>
 <path d="m54 57.212122v-40.424243c0-1.544485-1.2265-2.787879-2.75-2.787879h-38.5c-1.5235 0-2.75 1.243394-2.75 2.787879v40.424243c0 1.544484 1.2265 2.787878 2.75 2.787878h38.5c1.5235 0 2.75-1.243394 2.75-2.787878z" style="fill:#cccccc"/>
 <path d="m 54,16 0,-5.333333 C 54,9.1893334 52.7735,8 51.25,8 L 12.75,8 C 11.2265,8 10,9.1893334 10,10.666667 L 10,16 Z" style="fill:#4f4f4f"/>
 <path d="M 14.171875,5 C 13.522904,5 13,5.5438196 13,6.21875 l 0,5.5625 C 13,12.45618 13.522904,13 14.171875,13 l 2.65625,0 C 17.477096,13 18,12.45618 18,11.78125 l 0,-5.5625 C 18,5.5438196 17.477096,5 16.828125,5 l -2.65625,0 z m 11,0 C 24.522902,5 24,5.5438196 24,6.21875 l 0,5.5625 C 24,12.45618 24.522902,13 25.171875,13 l 2.65625,0 C 28.477097,13 29,12.45618 29,11.78125 l 0,-5.5625 C 29,5.5438196 28.477097,5 27.828125,5 l -2.65625,0 z m 11,0 C 35.522902,5 35,5.5438196 35,6.21875 l 0,5.5625 C 35,12.45618 35.522902,13 36.171875,13 l 2.65625,0 C 39.477097,13 40,12.45618 40,11.78125 l 0,-5.5625 C 40,5.5438196 39.477097,5 38.828125,5 l -2.65625,0 z m 11,0 C 46.522902,5 46,5.5438196 46,6.21875 l 0,5.5625 C 46,12.45618 46.522902,13 47.171875,13 l 2.65625,0 C 50.477097,13 51,12.45618 51,11.78125 l 0,-5.5625 C 51,5.5438196 50.477097,5 49.828125,5 l -2.65625,0 z" style="opacity:.2"/>
 <path d="m14.171875 4c-0.648971 0-1.171875 0.5438196-1.171875 1.21875v5.5625c0 0.67493 0.522904 1.21875 1.171875 1.21875h2.65625c0.648971 0 1.171875-0.54382 1.171875-1.21875v-5.5625c0-0.6749304-0.522904-1.21875-1.171875-1.21875h-2.65625zm11 0c-0.648973 0-1.171875 0.5438196-1.171875 1.21875v5.5625c0 0.67493 0.522902 1.21875 1.171875 1.21875h2.65625c0.648972 0 1.171875-0.54382 1.171875-1.21875v-5.5625c0-0.6749304-0.522903-1.21875-1.171875-1.21875h-2.65625zm11 0c-0.648973 0-1.171875 0.5438196-1.171875 1.21875v5.5625c0 0.67493 0.522902 1.21875 1.171875 1.21875h2.65625c0.648972 0 1.171875-0.54382 1.171875-1.21875v-5.5625c0-0.6749304-0.522903-1.21875-1.171875-1.21875h-2.65625zm11 0c-0.648973 0-1.171875 0.5438196-1.171875 1.21875v5.5625c0 0.67493 0.522902 1.21875 1.171875 1.21875h2.65625c0.648972 0 1.171875-0.54382 1.171875-1.21875v-5.5625c0-0.6749304-0.522903-1.21875-1.171875-1.21875h-2.65625z" style="fill:#f7c13e"/>
 <path d="m14.171875 4c-0.648971 0-1.171875 0.5438196-1.171875 1.21875v1c0-0.6749304 0.522904-1.21875 1.171875-1.21875h2.65625c0.648971 0 1.171875 0.5438196 1.171875 1.21875v-1c0-0.6749304-0.522904-1.21875-1.171875-1.21875h-2.65625zm11 0c-0.648973 0-1.171875 0.5438196-1.171875 1.21875v1c0-0.6749304 0.522902-1.21875 1.171875-1.21875h2.65625c0.648972 0 1.171875 0.5438196 1.171875 1.21875v-1c0-0.6749304-0.522903-1.21875-1.171875-1.21875h-2.65625zm11 0c-0.648973 0-1.171875 0.5438196-1.171875 1.21875v1c0-0.6749304 0.522902-1.21875 1.171875-1.21875h2.65625c0.648972 0 1.171875 0.5438196 1.171875 1.21875v-1c0-0.6749304-0.522903-1.21875-1.171875-1.21875h-2.65625zm11 0c-0.648973 0-1.171875 0.5438196-1.171875 1.21875v1c0-0.6749304 0.522902-1.21875 1.171875-1.21875h2.65625c0.648972 0 1.171875 0.5438196 1.171875 1.21875v-1c0-0.6749304-0.522903-1.21875-1.171875-1.21875h-2.65625z" style="fill:#ffffff;opacity:.2"/>
 <path d="m22.998572 28.857159a1.9999064 1.9999064 0 0 0 -1.392722 3.433863l7.629694 7.629758-7.629694 7.627175a1.9999112 1.9999112 0 1 0 2.828336 2.828267l7.627171-7.629629 7.629693 7.629629a1.9999112 1.9999112 0 1 0 2.828336 -2.828267l-7.627171-7.627175 7.627171-7.629758a1.9999112 1.9999112 0 1 0 -2.828336 -2.828267l-7.629693 7.627175-7.627171-7.627175a1.9999064 1.9999064 0 0 0 -1.435614 -0.605596z" style="opacity:.2"/>
 <path d="m22.998572 27.857152a1.9999064 1.9999064 0 0 0 -1.392722 3.433863l7.629694 7.629758-7.629694 7.627175a1.999911 1.999911 0 0 0 2.828336 2.828267l7.627171-7.629629 7.629693 7.629629a1.9999109 1.9999109 0 1 0 2.828336 -2.828267l-7.627171-7.627175 7.627171-7.629758a1.9999109 1.9999109 0 0 0 -2.828336 -2.828267l-7.629693 7.627175-7.627171-7.627175a1.9999064 1.9999064 0 0 0 -1.435614 -0.605596z" style="fill:#4f4f4f"/>
</svg>

<svg xmlns="http://www.w3.org/2000/svg" width="64" height="64" version="1">
 <path style="opacity:0.2" d="M 54,58.212122 54,17.787879 C 54,16.243394 52.7735,15 51.25,15 l -38.5,0 C 11.2265,15 10,16.243394 10,17.787879 l 0,40.424243 C 10,59.756606 11.2265,61 12.75,61 l 38.5,0 C 52.7735,61 54,59.756606 54,58.212122 Z"/>
 <path style="fill:#cccccc" d="M 54,57.212122 54,16.787879 C 54,15.243394 52.7735,14 51.25,14 l -38.5,0 C 11.2265,14 10,15.243394 10,16.787879 l 0,40.424243 C 10,58.756606 11.2265,60 12.75,60 l 38.5,0 C 52.7735,60 54,58.756606 54,57.212122 Z"/>
 <path style="fill:#4f4f4f" d="m 54,16 0,-5.333333 C 54,9.1893334 52.7735,8 51.25,8 L 12.75,8 C 11.2265,8 10,9.1893334 10,10.666667 L 10,16 Z"/>
 <path style="opacity:0.2" d="M 14.171875,5 C 13.522904,5 13,5.5438196 13,6.21875 l 0,5.5625 C 13,12.45618 13.522904,13 14.171875,13 l 2.65625,0 C 17.477096,13 18,12.45618 18,11.78125 l 0,-5.5625 C 18,5.5438196 17.477096,5 16.828125,5 l -2.65625,0 z m 11,0 C 24.522902,5 24,5.5438196 24,6.21875 l 0,5.5625 C 24,12.45618 24.522902,13 25.171875,13 l 2.65625,0 C 28.477097,13 29,12.45618 29,11.78125 l 0,-5.5625 C 29,5.5438196 28.477097,5 27.828125,5 l -2.65625,0 z m 11,0 C 35.522902,5 35,5.5438196 35,6.21875 l 0,5.5625 C 35,12.45618 35.522902,13 36.171875,13 l 2.65625,0 C 39.477097,13 40,12.45618 40,11.78125 l 0,-5.5625 C 40,5.5438196 39.477097,5 38.828125,5 l -2.65625,0 z m 11,0 C 46.522902,5 46,5.5438196 46,6.21875 l 0,5.5625 C 46,12.45618 46.522902,13 47.171875,13 l 2.65625,0 C 50.477097,13 51,12.45618 51,11.78125 l 0,-5.5625 C 51,5.5438196 50.477097,5 49.828125,5 l -2.65625,0 z"/>
 <path style="fill:#f7c13e" d="M 14.171875 4 C 13.522904 4 13 4.5438196 13 5.21875 L 13 10.78125 C 13 11.45618 13.522904 12 14.171875 12 L 16.828125 12 C 17.477096 12 18 11.45618 18 10.78125 L 18 5.21875 C 18 4.5438196 17.477096 4 16.828125 4 L 14.171875 4 z M 25.171875 4 C 24.522902 4 24 4.5438196 24 5.21875 L 24 10.78125 C 24 11.45618 24.522902 12 25.171875 12 L 27.828125 12 C 28.477097 12 29 11.45618 29 10.78125 L 29 5.21875 C 29 4.5438196 28.477097 4 27.828125 4 L 25.171875 4 z M 36.171875 4 C 35.522902 4 35 4.5438196 35 5.21875 L 35 10.78125 C 35 11.45618 35.522902 12 36.171875 12 L 38.828125 12 C 39.477097 12 40 11.45618 40 10.78125 L 40 5.21875 C 40 4.5438196 39.477097 4 38.828125 4 L 36.171875 4 z M 47.171875 4 C 46.522902 4 46 4.5438196 46 5.21875 L 46 10.78125 C 46 11.45618 46.522902 12 47.171875 12 L 49.828125 12 C 50.477097 12 51 11.45618 51 10.78125 L 51 5.21875 C 51 4.5438196 50.477097 4 49.828125 4 L 47.171875 4 z"/>
 <path style="opacity:0.2;fill:#ffffff" d="M 14.171875 4 C 13.522904 4 13 4.5438196 13 5.21875 L 13 6.21875 C 13 5.5438196 13.522904 5 14.171875 5 L 16.828125 5 C 17.477096 5 18 5.5438196 18 6.21875 L 18 5.21875 C 18 4.5438196 17.477096 4 16.828125 4 L 14.171875 4 z M 25.171875 4 C 24.522902 4 24 4.5438196 24 5.21875 L 24 6.21875 C 24 5.5438196 24.522902 5 25.171875 5 L 27.828125 5 C 28.477097 5 29 5.5438196 29 6.21875 L 29 5.21875 C 29 4.5438196 28.477097 4 27.828125 4 L 25.171875 4 z M 36.171875 4 C 35.522902 4 35 4.5438196 35 5.21875 L 35 6.21875 C 35 5.5438196 35.522902 5 36.171875 5 L 38.828125 5 C 39.477097 5 40 5.5438196 40 6.21875 L 40 5.21875 C 40 4.5438196 39.477097 4 38.828125 4 L 36.171875 4 z M 47.171875 4 C 46.522902 4 46 4.5438196 46 5.21875 L 46 6.21875 C 46 5.5438196 46.522902 5 47.171875 5 L 49.828125 5 C 50.477097 5 51 5.5438196 51 6.21875 L 51 5.21875 C 51 4.5438196 50.477097 4 49.828125 4 L 47.171875 4 z"/>
 <path style="opacity:0.2" d="m 22.998572,28.857159 a 1.9999064,1.9999064 0 0 0 -1.392722,3.433863 l 7.629694,7.629758 -7.629694,7.627175 a 1.9999112,1.9999112 0 1 0 2.828336,2.828267 l 7.627171,-7.629629 7.629693,7.629629 a 1.9999112,1.9999112 0 1 0 2.828336,-2.828267 L 34.892215,39.92078 42.519386,32.291022 A 1.9999112,1.9999112 0 1 0 39.69105,29.462755 l -7.629693,7.627175 -7.627171,-7.627175 a 1.9999064,1.9999064 0 0 0 -1.435614,-0.605596 z"/>
 <path style="fill:#4f4f4f" d="m 22.998572,27.857152 a 1.9999064,1.9999064 0 0 0 -1.392722,3.433863 l 7.629694,7.629758 -7.629694,7.627175 a 1.999911,1.999911 0 0 0 2.828336,2.828267 l 7.627171,-7.629629 7.629693,7.629629 a 1.9999109,1.9999109 0 1 0 2.828336,-2.828267 l -7.627171,-7.627175 7.627171,-7.629758 A 1.9999109,1.9999109 0 0 0 39.69105,28.462748 l -7.629693,7.627175 -7.627171,-7.627175 a 1.9999064,1.9999064 0 0 0 -1.435614,-0.605596 z"/>
</svg>
